X: 1
T: Sleepy Maggie - 8x32R 3C
O: Trad
R: reel
C: Arr. John Chambers
Z: John Chambers <jc@trillian.mit.edu>
N: Neil Gow Collection
N: Skye p.62
N: O'Neill's p.135
N: Williamson p.62
N: Hunter 220
N: Kerr's 3rd p.6
N: Winston Scotty Fitzgerald on Celtic 17,
N: second Kennedy tune-book p.20
M: C|
L: 1/8
K: BDorian
|: "Bm"f2Bb fBde | f2Ba "A"eAce | "Bm"f2Bb fBde | "(D)"fgaf "A"eAce :|
[| "Bm"fBdB fBde | fBdB "A"eAce | "Bm"fBdB fBde | "(D)"fgaf "A"eAce ||
|| "Bm"fBdB fBde | fBdB "A"eAce | "Bm"fBbB aBgB | "(D)"fgaf "A"HeAce |]
